public/avatar/hat/118.svg

<svg xmlns:xlink="http://www.w3.org/1999/xlink" height="92.9" width="100.7" xmlns="http://www.w3.org/2000/svg"><use height="32" transform="translate(16.4 33.1)" width="43.1" xlink:href="#a"/><defs><g id="a" fill-rule="evenodd"><path d="m-16.8 15.35-3.35-.45q-.85-.3-1.55-1.55l-.55-1.15 1.7-.25q1.55-.25 1.15-.45-.7-.25-1.3-1.3l-.2-1.85.95.05 1.8-.35.2-.05 5.05.7q.5.45-.1 2.3l-2 4.1-1.8.25" fill="#090000" transform="translate(22.25 16.65)"/><path d="M14.6-14.45q.75.55.6 2.45l1.75 3.1q.7 3.65-.35 5.3-.75 1.2-3.7 3.6L6-3.6l-3.3-4V-8q1-3.5 1.75-4.35l1.85-.95q.3-.8 1-1.6 1.45-1.6 3.65-1.75l.85 2.6.9-.55 1.9.15" fill="#731b13" transform="translate(22.25 16.65)"/><path d="M14.15-14.05q1.25 1.05-.4 3.2l.65-.15q.7.1.95.5Q18.5-6.4 14.5-2q-3.3 3.6-8.6 5.25-.25-1.2.45-4.4L5.55.2Q3.65-4.85 3.6-7.35 3.55-8.8 4.65-11.2q1.2-2.55 1.8-.1.3-2.2 1.1-3.05.75-.9 3-1.6 1 1.8.45 3.25 1.95-2.45 3.15-1.35" fill="#ff3d2b" transform="translate(22.25 16.65)"/><path d="m1.6 3.9 4.75-.2q1.6 0 3.2 2l2.7 3.45 1.15 3.55-2.1-2.55-2.1-1.7-.05 2.2L8.1 13.3q-.55-1.85-1.4-2.9L4 7.8l.35 1.75q0 .65-.8 2.9-1-2.8-2.15-4.25L-.85 6.45 1.6 3.9" transform="translate(22.25 16.65)"/><path d="M-1.65 3.8.8 6.4l-2.25 1.75q-1.15 1.4-2.2 4.25l-.75-2.9.35-1.75-2.7 2.55q-.85 1.1-1.4 2.95l-1.05-2.7-.05-2.15-2.1 1.65-2.1 2.6 1.15-3.6 2.7-3.4q1.6-2 3.2-2l4.75.15m12.5-6.4q1.2-.3 3.4.65 2.5 1.05 3.3 2.8.35.8 2.3 2.6 1.55 1.75.65 3.3-1.15 1.95-7.9 2.55L8.45 5.05l2.4-7.65" transform="translate(22.25 16.65)"/><path d="m.85-2.3 9.55-.35Q12.65-3.1 15.75.2q3 3.2 2.5 4.35-.6 1.3-6.9 3.2-2.55-2.5-4.8-2.45l-6.5.55-6.85-.6q-2.6-.05-5.1 2.5-6.15-1.9-6.75-3.2-.5-1.2 2-4.35 2.7-3.3 5.05-2.85l10.8.35H.85" transform="translate(22.25 16.65)"/><path d="M-14.9 7.9q1.35.3 1.75 1.25l-.4.8q.05.85-1.25 1.35-1.15.45-2.05.35-1.15-.1-2.3-.85-1.4-.9-1.3-2l1.75-.1q.6-.1 1.5-.6l2.3-.2" fill="#ca3221" transform="translate(22.25 16.65)"/><path d="m-12.1-2.6 3 7.65-3.6 4.25q-7-.6-8.1-2.55-.9-1.55.6-3.3 1.9-1.8 2.25-2.6.8-1.8 2.85-2.8 1.8-.9 3-.65" transform="translate(22.25 16.65)"/><path d="M1.55-9.2Q.9-13.3 2.7-12.65 13.1-8.85 17.55.95q-12.75 3-15.85 3h-3.35l-9.3-1.5-7-1.5q4.15-9.4 15.7-13.6 1.8-.65 1 3.45-.9 4.45 1.3 4.45t1.5-4.45" transform="translate(22.25 16.65)"/><path d="m-8.3 10.6-6.5 3.55 1.9-2.65q2.05-2.7 2.65-2.85.65-.15 1.35.9l.6 1.05" fill="#090000" transform="translate(22.25 16.65)"/><path d="m-15.2 9.9.95 1.1.4 1.3q.2.5-.35.95-1.2 1.1-2.75 1.2-4.1.3-4.45-1.85 1.8.15 3-.7l1.1-1.05q1.15-.95 2.1-.95" fill="#ca3221" transform="translate(22.25 16.65)"/><path d="M-12.15 9.35v.15L-15 14.1q-2.3-2.2-1.05-3.75.8-1 2.4-1.1l1.5.1" fill="#ca3221" transform="translate(22.25 16.65)"/><path d="m-13.8 13.65-1.45 1.1.45-2.25 2-5.25 2.4 1-3.25 5.25-.15.15" fill="#090000" transform="translate(22.25 16.65)"/><path d="m.1 4.7 5.45-.3q3-.4 4.45 1.05 1.2 1.2 2.5 3.85L11 7.45Q9.5 5.85 6.75 5.5L0 5.9q-4.55.95-10.25 4.7l-4.8 3.55 4.8-8.7Q-8.75 4-5.75 4.4l5.45.3h.4" fill="#ca3221" transform="translate(22.25 16.65)"/><path d="M-2.8-10.25v-.35l-2.15.85q-2.2.9-3.6 2-4.55 3.55-5.9 5.2l-3 4.65q-1.95 1.15-3.35 3.4l1.05-1.85 2.1-2.2L-14.2-4q2.1-3 6.3-5.4 3.85-2.25 5.6-2.25.8 0 .25 1.55-2 5.6 1.85 5.6 3.8 0 0 .65-1.25.15-2.25-.85-.95-.95-1-2.4-.05-1.25.65-3.15" fill="#eeaf36" transform="translate(22.25 16.65)"/><path d="M2.05-10.1q-.55-1.55.25-1.55 1.85 0 5.55 2.25Q11.9-7.15 14.2-4q2.85 4.15 3.4 5.45l2.15 2.2L20.8 5.5q-1.45-2.25-3.35-3.4l-3-4.65q-1.35-1.65-5.9-5.2-1.4-1.1-3.7-2.1l-2.2-.85.1.4q.75 2 .7 3.2Q3.3-5.65 2.2-4.55q-1 1-2 .7l-1.45-.3Q-2.2-4.5.2-4.5q3.85 0 1.85-5.6" fill="#eeaf36" transform="translate(22.25 16.65)"/><path d="m-12.45-4.65-.85.8-.5-.45.6-.75.5-.1.25.5" fill="#ffda8b" transform="translate(22.25 16.65)"/><path d="m-13.15-5.2 2.85-2.6.9.7-2.35 1.95q-.9.9-.7.5l-.7-.55m10.4-3.15-.05 1.5.5 1.45h-.45l-.65-.95-.1-1.3.75-.7" fill="#fff" transform="translate(22.25 16.65)"/><path d="m-10.45-7.6 1.2-.9.5-.3.6.7-1.4 1.2-.9-.7" fill="#ffda8b" transform="translate(22.25 16.65)"/><path d="M-7.5-3.9q1.7 2.25.45 3.5-1.35 1.25-3-1-1.75-2.25-.45-3.45 1.35-1.25 3 .95" fill="#fff" transform="translate(22.25 16.65)"/><path d="M-5.85-.7-6.4.55-7.6 1l-.85-1.5L-7-1.9l1.15 1.2" fill="#fff" transform="translate(22.25 16.65)"/><path d="M-8.1-3.8q.5.6.1.9-.3.3-.8-.25-.5-.6-.1-.9.35-.35.8.25m-1.15 1.1q.45.65.1.9-.35.35-.8-.25-.5-.6-.1-.9.3-.3.8.25m1.7 1.2L-8-1l-.4-1.2.85.7" transform="translate(22.25 16.65)"/><path d="m-11.35-2.9-.7-.15q.1 1.1-.6.8Q-13.55-5-13.1-5q.4 0 .8 1l.85.2.1.9m3.2 3.8-.25.55.4 1.25q-.35.35-1.95-1.9l.85.05.35-.6.6.65m1.95-3.2.65.1.05-.45q.1-.45.45-.3.45.2.65 1.35.15 1.15-.15 1.2l-.8-.95-.75-.15-.1-.8m-2.05-3.1L-8-6q-.8-.95-.4-1.35 2.25 1.6 2.15 2.05l-.95-.05-.35.7-.7-.75" fill="#fff" transform="translate(22.25 16.65)"/><path d="m10.25-8.55 1.35 3.5-.65.55q-2.45-.55-2-2.5l1.3-1.55" fill="#731b13" transform="translate(22.25 16.65)"/><path d="M9.7-6.35q0-1 .4-1.5.9-1.2 1.35-.6l.6 1.25 1.6 1.65q2.2 2.45 1.7 4.4l-.25.8-.05 1q-.35 1.3-1.6.8-1.2-.5-1.2-3.1 0-.9-.75-1-1.2-.1-1.5-.7-.3-.65.5-2-.75.1-.8-1" fill="#ff3d2b" transform="translate(22.25 16.65)"/><path d="m12.3-3 .65-.55q1.3 1.4 1.4 3.15.1 1.3-1.05 1.8-.85.4-1.45-.55-.6-.95.3-1.4-1.3.1-1.05-1.05.3-1.2 1.2-1.4" fill="#ff3d2b" transform="translate(22.25 16.65)"/><path d="M14.85-6.6q.95.25.95 1.75l-.45 1.4q.5.2.35 1.35-.15.8-1.1 1.15-.8.3-1.3-.8-.9-2.15.25-2.75l1.3-2.1" fill="#ff3d2b" transform="translate(22.25 16.65)"/><path d="m17.5-2.5.6.7q.5.85.25 1.55Q18 .95 14.8.95l.3-3.35 1.7-4.75.7 1.5-.15.85.65 1.4q-.05.55-.5.9" fill="#731b13" transform="translate(22.25 16.65)"/><path d="M15.6-6.65q.4-.35.7 0 .55.65.4 1.35-.15.65-.65.75 1.1-.15 1.05 1.05-.05 1.2-.85 1.3.65-.05 1.05.45t.2 1.15q-.3 1.05-2.45.95-.55 0-.75.5l-.65.7-.9-.1q-.4-.3-.3-.8l2.3-6.9.85-.4" fill="#ff3d2b" transform="translate(22.25 16.65)"/><path d="M12.5.2 15-.6l.35.6q0 1.2-.7 1.6l-1.7-.05Q11.85 1 12.5.2" fill="#ff3d2b" transform="translate(22.25 16.65)"/><path d="m15.75-9.65.1 1.25q.95 1.45.35 1.95.35.3-.35 2.1.65.3.75.95.15 1-.5 1.05 1 .7 1 1.6 0 .95-1.3 1L14.75.3q-.25.2-.35.8l-1.8.05v-1.3q0-.75-.6-.95.45.05.9-.45.5-.5.45-.95-.05-.7-1.3-1.6.95-.05 1.05-2.05l.9-.1q-.3-.9-.3-1.4 1.4 0 2.05-2" fill="#e43826" transform="translate(22.25 16.65)"/><path d="m16-8.3.3.95q0 .6-.45.8.4.85-.55 1.8.9.05 1.1 1.1.25 1-.6 1.2 1.05.4.9 1.55-.15 1.15-1.35.55L14.4.6q-.9.4-1.15-.35.85.1 1-.25v-1.2q1.4.15 0-1.45 1.05-.05.85-.9l-1.2-1.3 1-.95q.25-.5-.25-1.25l1.15-1.3.2.05" fill="#c73221" transform="translate(22.25 16.65)"/><path d="M-14.5 12.35q-.25 1.35-1.4 1.8-1.6.65-3.4.05l-1.9-1.25 2.95.15 2.75-1.85q.75-.05 1 1.1" fill="#a3271b" transform="translate(22.25 16.65)"/><path d="m-17.8 8.4 4.05.85-1 2.75-.7.25h-1.6l.65-1.4q0-1.15-.55-1.25l-2.35-.85 1.5-.35" fill="#a3271b" transform="translate(22.25 16.65)"/><path d="m-16.8 9.75 2.25 1.65-.1.25-2.9-.3-.1-.5.85-1.1" fill="#ca3221" transform="translate(22.25 16.65)"/><path d="M3.85 4.65-6.4 5.85q-1.55.4-4.3 2.4l-2.45 1.9L-12 7.9q1.3-2.35 2.25-2.9 1.4-.85 4.75-.6l7.45.25h1.4" fill="#a3271b" transform="translate(22.25 16.65)"/><path d="m3.6 4.65 4.6-.25q2 .25 2.8 2.45-1.15-1.1-2.4-1.6l-5-.6" fill="#a3271b" transform="translate(22.25 16.65)"/><path d="M7.5-14.5q.95-1.05 2.75-.9l-1.3 1.85L7.8-12q1.35-.15.45.75l-1 .05q-.45-.4-.5-1.05-.1-1.4.75-2.25m1.85 3.85q.75-1.45 1.35-2 1.15-1.05 2.55-1.4-2.8 3.5-3.9 3.45v-.05" fill="#ff9b7a" transform="translate(22.25 16.65)"/></g></defs></svg>

<?xml version="1.0" encoding="UTF-8" standalone="no"?>
<svg xmlns:xlink="http://www.w3.org/1999/xlink" height="92.9px" width="100.7px" xmlns="http://www.w3.org/2000/svg">
  <g transform="matrix(1.0, 0.0, 0.0, 1.0, 38.65, 49.75)">
    <use height="32.0" transform="matrix(1.0, 0.0, 0.0, 1.0, -22.25, -16.65)" width="43.1" xlink:href="#shape0"/>
  </g>
  <defs>
    <g id="shape0" transform="matrix(1.0, 0.0, 0.0, 1.0, 22.25, 16.65)">
      <path d="M-16.8 15.35 L-20.15 14.9 Q-21.0 14.6 -21.7 13.35 L-22.25 12.2 -20.55 11.95 Q-19.0 11.7 -19.4 11.5 -20.1 11.25 -20.7 10.2 L-20.9 8.35 -19.95 8.4 -18.15 8.05 -17.95 8.0 -12.9 8.7 Q-12.4 9.15 -13.0 11.0 L-15.0 15.1 -16.8 15.35" fill="#090000" fill-rule="evenodd" stroke="none"/>
      <path d="M14.6 -14.45 Q15.35 -13.9 15.2 -12.0 L16.95 -8.9 Q17.65 -5.25 16.6 -3.6 15.85 -2.4 12.9 0.0 L6.0 -3.6 2.7 -7.6 2.7 -8.0 Q3.7 -11.5 4.45 -12.35 L6.3 -13.3 Q6.6 -14.1 7.3 -14.9 8.75 -16.5 10.95 -16.65 L11.8 -14.05 12.7 -14.6 14.6 -14.45" fill="#731b13" fill-rule="evenodd" stroke="none"/>
      <path d="M14.15 -14.05 Q15.4 -13.0 13.75 -10.85 L14.4 -11.0 Q15.1 -10.9 15.35 -10.5 18.5 -6.4 14.5 -2.0 11.2 1.6 5.9 3.25 5.65 2.05 6.35 -1.15 L5.55 0.2 Q3.65 -4.85 3.6 -7.35 3.55 -8.8 4.65 -11.2 5.85 -13.75 6.45 -11.3 6.75 -13.5 7.55 -14.35 8.3 -15.25 10.55 -15.95 11.55 -14.15 11.0 -12.7 12.95 -15.15 14.15 -14.05" fill="#ff3d2b" fill-rule="evenodd" stroke="none"/>
      <path d="M1.6 3.9 L6.35 3.7 Q7.95 3.7 9.55 5.7 L12.25 9.15 13.4 12.7 11.3 10.15 9.2 8.45 9.15 10.65 8.1 13.3 Q7.55 11.45 6.7 10.4 L4.0 7.8 4.35 9.55 Q4.35 10.2 3.55 12.45 2.55 9.65 1.4 8.2 L-0.85 6.45 1.6 3.9" fill="#000000" fill-rule="evenodd" stroke="none"/>
      <path d="M-1.65 3.8 L0.8 6.4 -1.45 8.15 Q-2.6 9.55 -3.65 12.4 L-4.4 9.5 -4.05 7.75 -6.75 10.3 Q-7.6 11.4 -8.15 13.25 L-9.2 10.55 -9.25 8.4 -11.35 10.05 -13.45 12.65 -12.3 9.05 -9.6 5.65 Q-8.0 3.65 -6.4 3.65 L-1.65 3.8" fill="#000000" fill-rule="evenodd" stroke="none"/>
      <path d="M10.85 -2.6 Q12.05 -2.9 14.25 -1.95 16.75 -0.9 17.55 0.85 17.9 1.65 19.85 3.45 21.4 5.2 20.5 6.75 19.35 8.7 12.6 9.3 L8.45 5.05 10.85 -2.6" fill="#000000" fill-rule="evenodd" stroke="none"/>
      <path d="M0.85 -2.3 L10.4 -2.65 Q12.65 -3.1 15.75 0.2 18.75 3.4 18.25 4.55 17.65 5.85 11.35 7.75 8.8 5.25 6.55 5.3 L0.05 5.85 -6.8 5.25 Q-9.4 5.2 -11.9 7.75 -18.05 5.85 -18.65 4.55 -19.15 3.35 -16.65 0.2 -13.95 -3.1 -11.6 -2.65 L-0.8 -2.3 0.85 -2.3" fill="#000000" fill-rule="evenodd" stroke="none"/>
      <path d="M-14.9 7.9 Q-13.55 8.2 -13.15 9.15 L-13.55 9.95 Q-13.5 10.8 -14.8 11.3 -15.95 11.75 -16.85 11.65 -18.0 11.55 -19.15 10.8 -20.55 9.9 -20.45 8.8 L-18.7 8.7 Q-18.1 8.6 -17.2 8.1 L-14.9 7.9" fill="#ca3221" fill-rule="evenodd" stroke="none"/>
      <path d="M-12.1 -2.6 L-9.1 5.05 -12.7 9.3 Q-19.7 8.7 -20.8 6.75 -21.7 5.2 -20.2 3.45 -18.3 1.65 -17.95 0.85 -17.15 -0.95 -15.1 -1.95 -13.3 -2.85 -12.1 -2.6" fill="#000000" fill-rule="evenodd" stroke="none"/>
      <path d="M1.55 -9.2 Q0.9 -13.3 2.7 -12.65 13.1 -8.85 17.55 0.95 4.8 3.95 1.7 3.95 L-1.65 3.95 -10.95 2.45 -17.95 0.95 Q-13.8 -8.45 -2.25 -12.65 -0.45 -13.3 -1.25 -9.2 -2.15 -4.75 0.05 -4.75 2.25 -4.75 1.55 -9.2" fill="#000000" fill-rule="evenodd" stroke="none"/>
      <path d="M-8.3 10.6 L-14.8 14.15 -12.9 11.5 Q-10.85 8.8 -10.25 8.65 -9.6 8.5 -8.9 9.55 L-8.3 10.6" fill="#090000" fill-rule="evenodd" stroke="none"/>
      <path d="M-15.2 9.9 L-14.25 11.0 -13.85 12.3 Q-13.65 12.8 -14.2 13.25 -15.4 14.35 -16.95 14.45 -21.05 14.75 -21.4 12.6 -19.6 12.75 -18.4 11.9 L-17.3 10.85 Q-16.15 9.9 -15.2 9.9" fill="#ca3221" fill-rule="evenodd" stroke="none"/>
      <path d="M-12.15 9.35 L-12.15 9.5 -15.0 14.1 Q-17.3 11.9 -16.05 10.35 -15.25 9.35 -13.65 9.25 L-12.15 9.35" fill="#ca3221" fill-rule="evenodd" stroke="none"/>
      <path d="M-13.8 13.65 L-15.25 14.75 -14.8 12.5 -12.8 7.25 -10.4 8.25 -13.65 13.5 -13.8 13.65" fill="#090000" fill-rule="evenodd" stroke="none"/>
      <path d="M0.1 4.7 L5.55 4.4 Q8.55 4.0 10.0 5.45 11.2 6.65 12.5 9.3 L11.0 7.45 Q9.5 5.85 6.75 5.5 L0.0 5.9 Q-4.55 6.85 -10.25 10.6 L-15.05 14.15 -10.25 5.45 Q-8.75 4.0 -5.75 4.4 L-0.3 4.7 0.1 4.7" fill="#ca3221" fill-rule="evenodd" stroke="none"/>
      <path d="M-2.8 -10.25 L-2.8 -10.6 -4.95 -9.75 Q-7.15 -8.85 -8.55 -7.75 -13.1 -4.2 -14.45 -2.55 L-17.45 2.1 Q-19.4 3.25 -20.8 5.5 L-19.75 3.65 -17.65 1.45 -14.2 -4.0 Q-12.1 -7.0 -7.9 -9.4 -4.05 -11.65 -2.3 -11.65 -1.5 -11.65 -2.05 -10.1 -4.05 -4.5 -0.2 -4.5 3.6 -4.5 -0.2 -3.85 -1.45 -3.7 -2.45 -4.7 -3.4 -5.65 -3.45 -7.1 -3.5 -8.35 -2.8 -10.25" fill="#eeaf36" fill-rule="evenodd" stroke="none"/>
      <path d="M2.05 -10.1 Q1.5 -11.65 2.3 -11.65 4.15 -11.65 7.85 -9.4 11.9 -7.15 14.2 -4.0 17.05 0.15 17.6 1.45 L19.75 3.65 20.8 5.5 Q19.35 3.25 17.45 2.1 L14.45 -2.55 Q13.1 -4.2 8.55 -7.75 7.15 -8.85 4.85 -9.85 L2.65 -10.7 2.75 -10.3 Q3.5 -8.3 3.45 -7.1 3.3 -5.65 2.2 -4.55 1.2 -3.55 0.2 -3.85 L-1.25 -4.15 Q-2.2 -4.5 0.2 -4.5 4.05 -4.5 2.05 -10.1" fill="#eeaf36" fill-rule="evenodd" stroke="none"/>
      <path d="M-12.45 -4.65 L-13.3 -3.85 -13.8 -4.3 -13.2 -5.05 -12.7 -5.15 -12.45 -4.65" fill="#ffda8b" fill-rule="evenodd" stroke="none"/>
      <path d="M-13.15 -5.2 L-10.3 -7.8 -9.4 -7.1 -11.75 -5.15 Q-12.65 -4.25 -12.45 -4.65 L-13.15 -5.2" fill="#ffffff" fill-rule="evenodd" stroke="none"/>
      <path d="M-2.75 -8.35 L-2.8 -6.85 -2.3 -5.4 -2.75 -5.4 -3.4 -6.35 -3.5 -7.65 -2.75 -8.35" fill="#ffffff" fill-rule="evenodd" stroke="none"/>
      <path d="M-10.45 -7.6 L-9.25 -8.5 -8.75 -8.8 -8.15 -8.1 -9.55 -6.9 -10.45 -7.6" fill="#ffda8b" fill-rule="evenodd" stroke="none"/>
      <path d="M-7.5 -3.9 Q-5.8 -1.65 -7.05 -0.4 -8.4 0.85 -10.05 -1.4 -11.8 -3.65 -10.5 -4.85 -9.15 -6.1 -7.5 -3.9" fill="#ffffff" fill-rule="evenodd" stroke="none"/>
      <path d="M-5.85 -0.7 L-6.4 0.55 -7.6 1.0 -8.45 -0.5 -7.0 -1.9 -5.85 -0.7" fill="#ffffff" fill-rule="evenodd" stroke="none"/>
      <path d="M-8.1 -3.8 Q-7.6 -3.2 -8.0 -2.9 -8.3 -2.6 -8.8 -3.15 -9.3 -3.75 -8.9 -4.05 -8.55 -4.4 -8.1 -3.8" fill="#000000" fill-rule="evenodd" stroke="none"/>
      <path d="M-9.25 -2.7 Q-8.8 -2.05 -9.15 -1.8 -9.5 -1.45 -9.95 -2.05 -10.45 -2.65 -10.05 -2.95 -9.75 -3.25 -9.25 -2.7" fill="#000000" fill-rule="evenodd" stroke="none"/>
      <path d="M-7.55 -1.5 L-8.0 -1.0 -8.4 -2.2 -7.55 -1.5" fill="#000000" fill-rule="evenodd" stroke="none"/>
      <path d="M-11.35 -2.9 L-12.05 -3.05 Q-11.95 -1.95 -12.65 -2.25 -13.55 -5.0 -13.1 -5.0 -12.7 -5.0 -12.3 -4.0 L-11.45 -3.8 -11.35 -2.9" fill="#ffffff" fill-rule="evenodd" stroke="none"/>
      <path d="M-8.15 0.9 L-8.4 1.45 -8.0 2.7 Q-8.35 3.05 -9.95 0.8 L-9.1 0.85 -8.75 0.25 -8.15 0.9" fill="#ffffff" fill-rule="evenodd" stroke="none"/>
      <path d="M-6.2 -2.3 L-5.55 -2.2 -5.5 -2.65 Q-5.4 -3.1 -5.05 -2.95 -4.6 -2.75 -4.4 -1.6 -4.25 -0.45 -4.55 -0.4 L-5.35 -1.35 -6.1 -1.5 -6.2 -2.3" fill="#ffffff" fill-rule="evenodd" stroke="none"/>
      <path d="M-8.25 -5.4 L-8.0 -6.0 Q-8.8 -6.95 -8.4 -7.35 -6.15 -5.75 -6.25 -5.3 L-7.2 -5.35 -7.55 -4.65 -8.25 -5.4" fill="#ffffff" fill-rule="evenodd" stroke="none"/>
      <path d="M10.25 -8.55 L11.6 -5.05 10.95 -4.5 Q8.5 -5.05 8.95 -7.0 L10.25 -8.55" fill="#731b13" fill-rule="evenodd" stroke="none"/>
      <path d="M9.7 -6.35 Q9.7 -7.35 10.1 -7.85 11.0 -9.05 11.45 -8.45 L12.05 -7.2 13.65 -5.55 Q15.85 -3.1 15.35 -1.15 L15.1 -0.35 15.05 0.65 Q14.7 1.95 13.45 1.45 12.25 0.95 12.25 -1.65 12.25 -2.55 11.5 -2.65 10.3 -2.75 10.0 -3.35 9.7 -4.0 10.5 -5.35 9.75 -5.25 9.7 -6.35" fill="#ff3d2b" fill-rule="evenodd" stroke="none"/>
      <path d="M12.3 -3.0 L12.95 -3.55 Q14.25 -2.15 14.35 -0.4 14.45 0.9 13.3 1.4 12.45 1.8 11.85 0.85 11.25 -0.1 12.15 -0.55 10.85 -0.45 11.1 -1.6 11.4 -2.8 12.3 -3.0" fill="#ff3d2b" fill-rule="evenodd" stroke="none"/>
      <path d="M14.85 -6.6 Q15.8 -6.35 15.8 -4.85 L15.35 -3.45 Q15.85 -3.25 15.7 -2.1 15.55 -1.3 14.6 -0.95 13.8 -0.65 13.3 -1.75 12.4 -3.9 13.55 -4.5 L14.85 -6.6" fill="#ff3d2b" fill-rule="evenodd" stroke="none"/>
      <path d="M17.5 -2.5 L18.1 -1.8 Q18.6 -0.95 18.35 -0.25 18.0 0.95 14.8 0.95 L15.1 -2.4 16.8 -7.15 17.5 -5.65 17.35 -4.8 18.0 -3.4 Q17.95 -2.85 17.5 -2.5" fill="#731b13" fill-rule="evenodd" stroke="none"/>
      <path d="M15.6 -6.65 Q16.0 -7.0 16.3 -6.65 16.85 -6.0 16.7 -5.3 16.55 -4.65 16.05 -4.55 17.15 -4.7 17.1 -3.5 17.05 -2.3 16.25 -2.2 16.9 -2.25 17.3 -1.75 17.7 -1.25 17.5 -0.6 17.2 0.45 15.05 0.35 14.5 0.35 14.3 0.85 L13.65 1.55 12.75 1.45 Q12.35 1.15 12.45 0.65 L14.75 -6.25 15.6 -6.65" fill="#ff3d2b" fill-rule="evenodd" stroke="none"/>
      <path d="M12.5 0.2 L15.0 -0.6 15.35 0.0 Q15.35 1.2 14.65 1.6 L12.95 1.55 Q11.85 1.0 12.5 0.2" fill="#ff3d2b" fill-rule="evenodd" stroke="none"/>
      <path d="M15.75 -9.65 L15.85 -8.4 Q16.8 -6.95 16.2 -6.45 16.55 -6.15 15.85 -4.35 16.5 -4.05 16.6 -3.4 16.75 -2.4 16.1 -2.35 17.1 -1.65 17.1 -0.75 17.1 0.2 15.8 0.25 L14.75 0.3 Q14.5 0.5 14.4 1.1 L12.6 1.15 12.6 -0.15 Q12.6 -0.9 12.0 -1.1 12.45 -1.05 12.9 -1.55 13.4 -2.05 13.35 -2.5 13.3 -3.2 12.05 -4.1 13.0 -4.15 13.1 -6.15 L14.0 -6.25 Q13.7 -7.15 13.7 -7.65 15.1 -7.65 15.75 -9.65" fill="#e43826" fill-rule="evenodd" stroke="none"/>
      <path d="M16.0 -8.3 L16.3 -7.35 Q16.3 -6.75 15.85 -6.55 16.25 -5.7 15.3 -4.75 16.2 -4.7 16.4 -3.65 16.65 -2.65 15.8 -2.45 16.85 -2.05 16.7 -0.9 16.55 0.25 15.35 -0.35 L14.4 0.6 Q13.5 1.0 13.25 0.25 14.1 0.35 14.25 0.0 L14.25 -1.2 Q15.65 -1.05 14.25 -2.65 15.3 -2.7 15.1 -3.55 L13.9 -4.85 14.9 -5.8 Q15.15 -6.3 14.65 -7.05 L15.8 -8.35 16.0 -8.3" fill="#c73221" fill-rule="evenodd" stroke="none"/>
      <path d="M-14.5 12.35 Q-14.75 13.7 -15.9 14.15 -17.5 14.8 -19.3 14.2 L-21.2 12.95 -18.25 13.1 -15.5 11.25 Q-14.75 11.2 -14.5 12.35" fill="#a3271b" fill-rule="evenodd" stroke="none"/>
      <path d="M-17.8 8.4 L-13.75 9.25 -14.75 12.0 -15.45 12.25 -17.05 12.25 -16.4 10.85 Q-16.4 9.7 -16.95 9.6 L-19.3 8.75 -17.8 8.4" fill="#a3271b" fill-rule="evenodd" stroke="none"/>
      <path d="M-16.8 9.75 L-14.55 11.4 -14.65 11.65 -17.55 11.35 -17.65 10.85 -16.8 9.75" fill="#ca3221" fill-rule="evenodd" stroke="none"/>
      <path d="M3.85 4.65 L-6.4 5.85 Q-7.95 6.25 -10.7 8.25 L-13.15 10.15 -12.0 7.9 Q-10.7 5.55 -9.75 5.0 -8.35 4.15 -5.0 4.4 L2.45 4.65 3.85 4.65" fill="#a3271b" fill-rule="evenodd" stroke="none"/>
      <path d="M3.6 4.65 L8.2 4.4 Q10.2 4.65 11.0 6.85 9.85 5.75 8.6 5.25 L3.6 4.65" fill="#a3271b" fill-rule="evenodd" stroke="none"/>
      <path d="M7.5 -14.5 Q8.45 -15.55 10.25 -15.4 L8.95 -13.55 7.8 -12.0 Q9.15 -12.15 8.25 -11.25 L7.25 -11.2 Q6.8 -11.6 6.75 -12.25 6.65 -13.65 7.5 -14.5" fill="#ff9b7a" fill-rule="evenodd" stroke="none"/>
      <path d="M9.35 -10.65 Q10.1 -12.1 10.7 -12.65 11.85 -13.7 13.25 -14.05 10.45 -10.55 9.35 -10.6 L9.35 -10.65" fill="#ff9b7a" fill-rule="evenodd" stroke="none"/>
    </g>
  </defs>
</svg>
